public/assets/img/logos/logo-labed.svg

<?xml version="1.0" encoding="UTF-8" standalone="no"?><svg width="639" height="214" viewBox="0 0 639 214" fill="none" xmlns="http://www.w3.org/2000/svg">
<path d="M5.01562 214V192.744H8.69811V210.581H18.1156V214H5.01562Z" fill="white"/>
<path d="M19.8654 213.261L26.2946 192.744H32.0296L38.4287 213.261L37.9759 214H34.867L33.4483 209.318H24.8458L23.3969 214H20.3483L19.8654 213.261ZM25.872 205.898H32.4522L29.4338 196.163H28.8603L25.872 205.898Z" fill="white"/>
<path d="M42.0303 214V192.744H51.7497C55.0297 192.744 56.6697 194.418 56.6697 197.765V199.706C56.6697 200.404 56.4685 201 56.066 201.493L55.0096 202.787L56.2773 203.865C56.9414 204.419 57.2734 205.241 57.2734 206.329V208.979C57.2734 212.326 55.6334 214 52.3533 214H42.0303ZM45.7128 210.581H52.2628C53.1482 210.581 53.5909 210.139 53.5909 209.256V206.021C53.5909 205.138 53.1482 204.697 52.2628 204.697H45.7128V210.581ZM45.7128 201.277H51.6591C52.5445 201.277 52.9872 200.825 52.9872 199.922V197.488C52.9872 196.605 52.5445 196.163 51.6591 196.163H45.7128V201.277Z" fill="white"/>
<path d="M61.6626 214V209.995H65.5866V214H61.6626Z" fill="white"/>
<path d="M78.4366 214V192.744H86.4354C91.8686 192.744 94.5852 195.527 94.5852 201.092V205.652C94.5852 211.217 91.8686 214 86.4354 214H78.4366ZM82.1191 210.581H86.6467C89.484 210.581 90.9027 209.133 90.9027 206.237V200.507C90.9027 197.611 89.484 196.163 86.6467 196.163H82.1191V210.581Z" fill="white"/>
<path d="M99.5526 214V192.744H113.558V196.163H103.235V201.277H112.653V204.697H103.235V210.581H113.558V214H99.5526Z" fill="white"/>
<path d="M125.779 214V192.744H139.784V196.163H129.461V201.277H138.879V204.697H129.461V210.581H139.784V214H125.779Z" fill="white"/>
<path d="M144.301 214V192.744H147.983V210.581H157.401V214H144.301Z" fill="white"/>
<path d="M161.143 214V192.744H175.148V196.163H164.825V201.277H174.243V204.697H164.825V210.581H175.148V214H161.143Z" fill="white"/>
<path d="M177.824 196.163V192.744H194.636V196.163H188.086V214H184.374V196.163H177.824Z" fill="white"/>
<path d="M198.393 214V192.744H208.414C211.694 192.744 213.334 194.418 213.334 197.765V201.246C213.334 203.834 212.328 205.405 210.316 205.96L213.938 213.199L213.485 214H210.346L206.483 206.237H202.076V214H198.393ZM202.076 202.817H208.324C209.209 202.817 209.652 202.366 209.652 201.462V197.488C209.652 196.605 209.209 196.163 208.324 196.163H202.076V202.817Z" fill="white"/>
<path d="M217.999 208.979V197.765C217.999 194.418 219.639 192.744 222.919 192.744H229.831C233.111 192.744 234.751 194.418 234.751 197.765V208.979C234.751 212.326 233.111 214 229.831 214H222.919C219.639 214 217.999 212.326 217.999 208.979ZM221.681 209.256C221.681 210.139 222.124 210.581 223.009 210.581H229.741C230.626 210.581 231.069 210.139 231.069 209.256V197.488C231.069 196.605 230.626 196.163 229.741 196.163H223.009C222.124 196.163 221.681 196.605 221.681 197.488V209.256ZM221.832 189.663L226.39 185.135L230.918 189.663L229.348 191.327L226.39 188.462L223.402 191.327L221.832 189.663Z" fill="white"/>
<path d="M240.036 214V192.744H244.05L253.287 207.9V192.744H256.969V214H252.985L243.718 198.844V214H240.036Z" fill="white"/>
<path d="M262.567 214V192.744H266.249V214H262.567Z" fill="white"/>
<path d="M271.531 208.979V197.765C271.531 194.418 273.171 192.744 276.451 192.744H284.661L286.442 194.161V196.163H276.542C275.656 196.163 275.214 196.605 275.214 197.488V209.256C275.214 210.139 275.656 210.581 276.542 210.581H286.442V212.583L284.661 214H276.451C273.171 214 271.531 212.326 271.531 208.979Z" fill="white"/>
<path d="M288.982 213.261L295.411 192.744H301.146L307.545 213.261L307.093 214H303.984L302.565 209.318H293.962L292.514 214H289.465L288.982 213.261ZM294.989 205.898H301.569L298.55 196.163H297.977L294.989 205.898Z" fill="white"/>
<path d="M318.851 214V192.744H332.857V196.163H322.534V201.277H331.951V204.697H322.534V210.581H332.857V214H318.851Z" fill="white"/>
<path d="M345.077 214V192.744H353.076C358.509 192.744 361.226 195.527 361.226 201.092V205.652C361.226 211.217 358.509 214 353.076 214H345.077ZM348.76 210.581H353.287C356.125 210.581 357.543 209.133 357.543 206.237V200.507C357.543 197.611 356.125 196.163 353.287 196.163H348.76V210.581Z" fill="white"/>
<path d="M366.193 214V192.744H380.199V196.163H369.876V201.277H379.293V204.697H369.876V210.581H380.199V214H366.193Z" fill="white"/>
<path d="M383.81 212.583V210.581H393.137C394.022 210.581 394.465 210.139 394.465 209.256V206.915C394.465 206.134 394.123 205.672 393.439 205.528L387.311 204.265C384.977 203.793 383.81 202.191 383.81 199.46V197.765C383.81 194.418 385.45 192.744 388.73 192.744H395.763L397.544 194.161V196.163H388.82C387.935 196.163 387.492 196.605 387.492 197.488V199.552C387.492 200.332 387.834 200.795 388.519 200.938L394.646 202.171C396.98 202.663 398.147 204.265 398.147 206.976V208.979C398.147 212.326 396.507 214 393.227 214H385.591L383.81 212.583Z" fill="white"/>
<path d="M402.825 214V192.744H416.83V196.163H406.507V201.277H415.925V204.697H406.507V210.581H416.83V214H402.825Z" fill="white"/>
<path d="M421.347 214V192.744H425.361L434.598 207.9V192.744H438.28V214H434.296L425.029 198.844V214H421.347Z" fill="white"/>
<path d="M441.886 193.483L442.368 192.744H445.568L450.73 210.581H451.303L456.465 192.744H459.694L460.147 193.483L453.989 214H448.013L441.886 193.483Z" fill="white"/>
<path d="M463.424 208.979V197.765C463.424 194.418 465.064 192.744 468.344 192.744H475.257C478.537 192.744 480.177 194.418 480.177 197.765V208.979C480.177 212.326 478.537 214 475.257 214H468.344C465.064 214 463.424 212.326 463.424 208.979ZM467.107 209.256C467.107 210.139 467.55 210.581 468.435 210.581H475.166C476.051 210.581 476.494 210.139 476.494 209.256V197.488C476.494 196.605 476.051 196.163 475.166 196.163H468.435C467.55 196.163 467.107 196.605 467.107 197.488V209.256Z" fill="white"/>
<path d="M485.461 214V192.744H489.144V210.581H498.561V214H485.461Z" fill="white"/>
<path d="M498.513 193.483L498.996 192.744H502.195L507.357 210.581H507.93L513.092 192.744H516.322L516.774 193.483L510.617 214H504.64L498.513 193.483Z" fill="white"/>
<path d="M520.354 214V192.744H524.036V214H520.354Z" fill="white"/>
<path d="M529.62 214V192.744H534.148L540.396 206.36L546.644 192.744H551.172V214H547.459V199.152L541.965 211.104H538.796L533.302 199.152V214H529.62Z" fill="white"/>
<path d="M556.749 214V192.744H570.755V196.163H560.432V201.277H569.849V204.697H560.432V210.581H570.755V214H556.749Z" fill="white"/>
<path d="M575.271 214V192.744H579.286L588.522 207.9V192.744H592.205V214H588.22L578.954 198.844V214H575.271Z" fill="white"/>
<path d="M595.961 196.163V192.744H612.774V196.163H606.224V214H602.511V196.163H595.961Z" fill="white"/>
<path d="M616.229 208.979V197.765C616.229 194.418 617.869 192.744 621.149 192.744H628.061C631.341 192.744 632.981 194.418 632.981 197.765V208.979C632.981 212.326 631.341 214 628.061 214H621.149C617.869 214 616.229 212.326 616.229 208.979ZM619.911 209.256C619.911 210.139 620.354 210.581 621.239 210.581H627.971C628.856 210.581 629.299 210.139 629.299 209.256V197.488C629.299 196.605 628.856 196.163 627.971 196.163H621.239C620.354 196.163 619.911 196.605 619.911 197.488V209.256Z" fill="white"/>
<g clip-path="url(#clip0_13_105)">
<path d="M136.58 159.256H0V20.3332H39.2301V119.263H108.079L136.58 159.256Z" fill="white"/>
<path d="M582.567 119.263C581.915 119.316 581.259 119.316 580.606 119.263H582.567Z" fill="white"/>
<path d="M465.701 119.053L494.653 159.256H355.915V24.543H465.76L494.712 64.7463H403.796C401.748 64.7059 399.766 65.5266 398.274 67.033C396.783 68.5393 395.899 70.6119 395.813 72.808V74.9129C395.904 77.1053 396.79 79.1728 398.281 80.6747C399.772 82.1766 401.751 82.9942 403.796 82.9536H480.569L495.045 103.055H403.756C401.712 103.015 399.733 103.832 398.242 105.334C396.751 106.836 395.865 108.904 395.773 111.096C395.86 113.292 396.743 115.365 398.235 116.871C399.727 118.378 401.708 119.198 403.756 119.158L465.701 119.053Z" fill="white"/>
<path d="M347.187 124.525C347.187 124.883 347.187 125.22 347.187 125.578C346.932 134.601 343.412 143.164 337.374 149.451C331.336 155.738 323.254 159.254 314.841 159.256H187.54L165.531 126.041L164.178 123.936L128.125 69.5666L103.097 107.286H55.1575L104.195 33.4466C106.916 29.3496 110.51 26.0097 114.678 23.7052C118.846 21.4007 123.466 20.1984 128.155 20.1984C132.843 20.1984 137.464 21.4007 141.632 23.7052C145.799 26.0097 149.394 29.3496 152.115 33.4466L187.088 86.0688L190.09 90.5733L206.017 114.611V115.053H206.213L211.45 122.968L213.177 125.578H300.11C302.711 125.578 305.206 124.469 307.045 122.495C308.885 120.521 309.918 117.844 309.918 115.053C309.918 112.262 308.885 109.585 307.045 107.611C305.206 105.638 302.711 104.529 300.11 104.529H222.101L230.889 89.7945L237.166 79.2701H296.187C297.476 79.2725 298.753 79.0024 299.944 78.4751C301.136 77.9478 302.219 77.1736 303.131 76.1969C304.041 75.2177 304.763 74.0556 305.254 72.7771C305.745 71.4985 305.997 70.1286 305.995 68.7456C305.995 65.9544 304.962 63.2775 303.122 61.3037C301.283 59.33 298.788 58.2212 296.187 58.2212H249.739L269.864 24.543H312.86C320.924 24.543 328.657 27.9804 334.359 34.0989C340.06 40.2174 343.264 48.5159 343.264 57.1687C343.264 65.8216 340.06 74.1201 334.359 80.2386C328.657 86.3571 320.924 89.7945 312.86 89.7945H314.822C321.867 89.7989 328.718 92.267 334.339 96.8248C339.959 101.383 344.043 107.782 345.97 115.053C346.776 118.136 347.185 121.323 347.187 124.525V124.525Z" fill="white"/>
<path d="M206.154 115.054H205.958V114.78L206.154 115.054Z" fill="white"/>
<path d="M205.958 0H240.128L225.573 22.4381H252.23L207.92 98.2141L215.766 49.107H187.167L205.958 0Z" fill="#23B5D3"/>
<path d="M639 93.2044C639 113.811 632.861 131.892 621.798 144.606C618.936 147.913 615.731 150.858 612.245 153.383C608.977 155.756 605.47 157.726 601.79 159.256H507.638L478.608 119.263H582.568C596.298 119.263 603.477 106.634 603.477 91.3943C603.477 74.5551 594.317 63.2939 580.685 63.2939H552.282L553.145 108.739H515.876L516.288 20.3332H580.606C613.952 20.3332 639 51.6539 639 93.2044Z" fill="white"/>
</g>
<defs>
<clipPath id="clip0_13_105">
<rect width="639" height="159.256" fill="white"/>
</clipPath>
</defs>
</svg>

<svg xmlns="http://www.w3.org/2000/svg" xmlns:xlink="http://www.w3.org/1999/xlink" width="639" height="214" fill="none" xmlns:v="https://vecta.io/nano"><g fill="#fff"><path d="M5.016 214v-21.256h3.682v17.837h9.417V214h-13.1zm14.849-.739l6.429-20.517h5.735l6.399 20.517-.453.739h-3.109l-1.419-4.682h-8.603L23.397 214h-3.049l-.483-.739zm6.007-7.363h6.58l-3.018-9.735h-.574l-2.988 9.735zM42.03 214v-21.256h9.719c3.28 0 4.92 1.674 4.92 5.021v1.941c0 .698-.201 1.294-.604 1.787l-1.056 1.294 1.268 1.078c.664.554.996 1.376.996 2.464v2.65c0 3.347-1.64 5.021-4.92 5.021H42.03zm3.683-3.419h6.55c.885 0 1.328-.442 1.328-1.325v-3.235c0-.883-.443-1.324-1.328-1.324h-6.55v5.884zm0-9.304h5.946c.885 0 1.328-.452 1.328-1.355v-2.434c0-.883-.443-1.325-1.328-1.325h-5.946v5.114zM61.663 214v-4.005h3.924V214h-3.924zm16.774 0v-21.256h7.999c5.433 0 8.15 2.783 8.15 8.348v4.56c0 5.565-2.717 8.348-8.15 8.348h-7.999zm3.683-3.419h4.528c2.837 0 4.256-1.448 4.256-4.344v-5.73c0-2.896-1.419-4.344-4.256-4.344H82.12v14.418zM99.553 214v-21.256h14.005v3.419h-10.323v5.114h9.418v3.42h-9.418v5.884h10.323V214H99.553z"/><use xlink:href="#B"/><path d="M144.301 214v-21.256h3.682v17.837h9.418V214h-13.1z"/><use xlink:href="#B" x="35.364"/><path d="M177.824 196.163v-3.419h16.812v3.419h-6.55V214h-3.712v-17.837h-6.55zM198.393 214v-21.256h10.021c3.28 0 4.92 1.674 4.92 5.021v3.481c0 2.588-1.006 4.159-3.018 4.714l3.622 7.239-.453.801h-3.139l-3.863-7.763h-4.407V214h-3.683zm3.683-11.183h6.248c.885 0 1.328-.451 1.328-1.355v-3.974c0-.883-.443-1.325-1.328-1.325h-6.248v6.654zm15.923 6.162v-11.214c0-3.347 1.64-5.021 4.92-5.021h6.912c3.28 0 4.92 1.674 4.92 5.021v11.214c0 3.347-1.64 5.021-4.92 5.021h-6.912c-3.28 0-4.92-1.674-4.92-5.021zm3.682.277c0 .883.443 1.325 1.328 1.325h6.732c.885 0 1.328-.442 1.328-1.325v-11.768c0-.883-.443-1.325-1.328-1.325h-6.732c-.885 0-1.328.442-1.328 1.325v11.768zm.151-19.593l4.558-4.528 4.528 4.528-1.57 1.664-2.958-2.865-2.988 2.865-1.57-1.664zM240.036 214v-21.256h4.014l9.237 15.156v-15.156h3.682V214h-3.984l-9.267-15.156V214h-3.682zm22.531 0v-21.256h3.682V214h-3.682zm8.964-5.021v-11.214c0-3.347 1.64-5.021 4.92-5.021h8.21l1.781 1.417v2.002h-9.9c-.886 0-1.328.442-1.328 1.325v11.768c0 .883.442 1.325 1.328 1.325h9.9v2.002L284.661 214h-8.21c-3.28 0-4.92-1.674-4.92-5.021zm17.451 4.282l6.429-20.517h5.735l6.399 20.517-.452.739h-3.109l-1.419-4.682h-8.603L292.514 214h-3.049l-.483-.739zm6.007-7.363h6.58l-3.019-9.735h-.573l-2.988 9.735z"/><use xlink:href="#C"/><path d="M345.077 214v-21.256h7.999c5.433 0 8.15 2.783 8.15 8.348v4.56c0 5.565-2.717 8.348-8.15 8.348h-7.999zm3.683-3.419h4.527c2.838 0 4.256-1.448 4.256-4.344v-5.73c0-2.896-1.418-4.344-4.256-4.344h-4.527v14.418z"/><use xlink:href="#C" x="47.342"/><path d="M383.81 212.583v-2.002h9.327c.885 0 1.328-.442 1.328-1.325v-2.341c0-.781-.342-1.243-1.026-1.387l-6.128-1.263c-2.334-.472-3.501-2.074-3.501-4.805v-1.695c0-3.347 1.64-5.021 4.92-5.021h7.033l1.781 1.417v2.002h-8.724c-.885 0-1.328.442-1.328 1.325v2.064c0 .78.342 1.243 1.027 1.386l6.127 1.233c2.334.492 3.501 2.094 3.501 4.805v2.003c0 3.347-1.64 5.021-4.92 5.021h-7.636l-1.781-1.417z"/><use xlink:href="#B" x="277.046"/><path d="M421.347 214v-21.256h4.014l9.237 15.156v-15.156h3.682V214h-3.984l-9.267-15.156V214h-3.682zm20.539-20.517l.482-.739h3.2l5.162 17.837h.573l5.162-17.837h3.229l.453.739L453.989 214h-5.976l-6.127-20.517zm21.538 15.496v-11.214c0-3.347 1.64-5.021 4.92-5.021h6.913c3.28 0 4.92 1.674 4.92 5.021v11.214c0 3.347-1.64 5.021-4.92 5.021h-6.913c-3.28 0-4.92-1.674-4.92-5.021zm3.683.277c0 .883.443 1.325 1.328 1.325h6.731c.885 0 1.328-.442 1.328-1.325v-11.768c0-.883-.443-1.325-1.328-1.325h-6.731c-.885 0-1.328.442-1.328 1.325v11.768zM485.461 214v-21.256h3.683v17.837h9.417V214h-13.1zm13.052-20.517l.483-.739h3.199l5.162 17.837h.573l5.162-17.837h3.23l.452.739L510.617 214h-5.977l-6.127-20.517zM520.354 214v-21.256h3.682V214h-3.682zm9.266 0v-21.256h4.528l6.248 13.616 6.248-13.616h4.528V214h-3.713v-14.848l-5.494 11.952h-3.169l-5.494-11.952V214h-3.682z"/><use xlink:href="#C" x="237.898"/><path d="M575.271 214v-21.256h4.015l9.236 15.156v-15.156h3.683V214h-3.985l-9.266-15.156V214h-3.683zm20.69-17.837v-3.419h16.813v3.419h-6.55V214h-3.713v-17.837h-6.55zm20.268 12.816v-11.214c0-3.347 1.64-5.021 4.92-5.021h6.912c3.28 0 4.92 1.674 4.92 5.021v11.214c0 3.347-1.64 5.021-4.92 5.021h-6.912c-3.28 0-4.92-1.674-4.92-5.021zm3.682.277c0 .883.443 1.325 1.328 1.325h6.732c.885 0 1.328-.442 1.328-1.325v-11.768c0-.883-.443-1.325-1.328-1.325h-6.732c-.885 0-1.328.442-1.328 1.325v11.768z"/></g><g clip-path="url(#A)"><g fill="#fff"><path d="M136.58 159.256H0V20.333h39.23v98.93h68.849l28.501 39.993zm445.987-39.993c-.652.053-1.308.053-1.961 0h1.961zm-116.866-.21l28.952 40.203H355.915V24.543H465.76l28.952 40.203h-90.916c-2.048-.04-4.03.78-5.522 2.287s-2.375 3.579-2.461 5.775v2.105c.091 2.192.977 4.26 2.468 5.762s3.47 2.32 5.515 2.279h76.773l14.476 20.101h-91.289c-2.044-.04-4.023.777-5.514 2.279s-2.377 3.57-2.469 5.762c.087 2.196.97 4.269 2.462 5.775s3.473 2.327 5.521 2.287l61.945-.105zm-118.514 5.472v1.053c-.255 9.023-3.775 17.586-9.813 23.873s-14.12 9.803-22.533 9.805H187.54l-22.009-33.215-1.353-2.105-36.053-54.369-25.028 37.719H55.158l49.037-73.839c2.721-4.097 6.315-7.437 10.483-9.741s8.788-3.507 13.477-3.507 9.309 1.202 13.477 3.507 7.762 5.644 10.483 9.741l34.973 52.622 3.002 4.505 15.927 24.038v.442h.196l5.237 7.915 1.727 2.61h86.933c2.601 0 5.096-1.109 6.935-3.083s2.873-4.651 2.873-7.442-1.033-5.468-2.873-7.442-4.334-3.082-6.935-3.082h-78.009l8.788-14.734 6.277-10.524h59.021a9.23 9.23 0 0 0 3.757-.795 9.78 9.78 0 0 0 3.187-2.278 10.6 10.6 0 0 0 2.123-3.42c.491-1.279.743-2.648.741-4.032 0-2.791-1.033-5.468-2.873-7.442s-4.334-3.082-6.935-3.082h-46.448l20.125-33.678h42.996c8.064 0 15.797 3.437 21.499 9.556s8.905 14.417 8.905 23.07-3.204 16.951-8.905 23.07-13.435 9.556-21.499 9.556h1.962c7.045.004 13.896 2.472 19.517 7.03s9.704 10.957 11.631 18.228c.806 3.083 1.215 6.27 1.217 9.472h0z"/><path d="M206.154 115.054h-.196v-.274l.196.274z"/></g><path d="M205.958 0h34.17l-14.555 22.438h26.657l-44.31 75.776 7.846-49.107h-28.599L205.958 0z" fill="#23b5d3"/><path d="M639 93.204c0 20.607-6.139 38.688-17.202 51.402-2.862 3.307-6.067 6.252-9.553 8.777-3.268 2.373-6.775 4.343-10.455 5.873h-94.152l-29.03-39.993h103.96c13.73 0 20.909-12.629 20.909-27.869 0-16.839-9.16-28.1-22.792-28.1h-28.403l.863 45.445h-37.269l.412-88.406h64.318c33.346 0 58.394 31.321 58.394 72.871z" fill="#fff"/></g><defs><clipPath id="A"><path fill="#fff" d="M0 0h639v159.256H0z"/></clipPath><path id="B" d="M125.779 214v-21.256h14.005v3.419h-10.323v5.114h9.418v3.42h-9.418v5.884h10.323V214h-14.005z"/><path id="C" d="M318.851 214v-21.256h14.006v3.419h-10.323v5.114h9.417v3.42h-9.417v5.884h10.323V214h-14.006z"/></defs></svg>
